X:11388
T:Muieira de Grandas (Versin 2)
R:mueira
C:Trad.
M:6/8
L:1/8
Q:3/8=130
K:C
ccc|: G2 E F2 A|G2 E CDE|F2 D E2 F|G2 G ccc|
|G2 E F2 A|G2 E CDE|F2 D B,2 D|1 C3 ccc :|2 C3 CEC|
|: E2 E CEC|D2 D B,DD|F2 F DFD|EDC CEC|E2 E CEC|D2 D B,DD|GAG FED|C3 CEC :|
|: A2 F DFD|G2 E CEC|F2 D B,DD|G2 G CEC|A2 F DFD|G2 E CEC|F3 B,CD|1 C3 CEC :|2 C3 ccc|
